SVA_cg-config-v2.1.0_aces-v1.3_ocio-v2.1.ocio
ocio_profile_version: 2.1

environment:
  {}
search_path: ""
strictparsing: true
luma: [0.2126, 0.7152, 0.0722]
name: cg-config-v2.1.0_aces-v1.3_ocio-v2.1
description: |
  Academy Color Encoding System - CG Config [COLORSPACES v2.1.0] [ACES v1.3] [OCIO v2.1]
  --------------------------------------------------------------------------------------

  This minimalistic "OpenColorIO" config is geared toward computer graphics artists requiring a lean config that does not include camera colorspaces and the less common displays and looks.

roles:
  aces_interchange: ACES2065-1
  cie_xyz_d65_interchange: CIE XYZ-D65 - Display-referred
  color_picking: sRGB Encoded Rec.709 (sRGB)
  color_timing: ACEScct
  compositing_log: ACEScct
  data: Raw
  matte_paint: sRGB Encoded Rec.709 (sRGB)
  scene_linear: ACEScg
  texture_paint: sRGB Encoded Rec.709 (sRGB)

file_rules:
  - !<Rule> {name: Default, colorspace: ACES2065-1}

shared_views:
  - !<View> {name: ACES 1.0 - SDR Video, view_transform: ACES 1.0 - SDR Video, display_colorspace: <USE_DISPLAY_NAME>}
  - !<View> {name: ACES 1.1 - HDR Video (1000 nits & Rec.2020 lim), view_transform: ACES 1.1 - HDR Video (1000 nits & Rec.2020 lim), display_colorspace: <USE_DISPLAY_NAME>}
  - !<View> {name: ACES 1.1 - HDR Video (1000 nits & P3 lim), view_transform: ACES 1.1 - HDR Video (1000 nits & P3 lim), display_colorspace: <USE_DISPLAY_NAME>}
  - !<View> {name: ACES 1.0 - SDR Cinema, view_transform: ACES 1.0 - SDR Cinema, display_colorspace: <USE_DISPLAY_NAME>}
  - !<View> {name: Un-tone-mapped, view_transform: Un-tone-mapped, display_colorspace: <USE_DISPLAY_NAME>}

displays:
  sRGB - Display:
    - !<View> {name: Raw, colorspace: Raw}
    - !<Views> [ACES 1.0 - SDR Video, Un-tone-mapped]
  Rec.1886 Rec.709 - Display:
    - !<View> {name: Raw, colorspace: Raw}
    - !<Views> [ACES 1.0 - SDR Video, Un-tone-mapped]
  Rec.2100-PQ - Display:
    - !<View> {name: Raw, colorspace: Raw}
    - !<Views> [ACES 1.1 - HDR Video (1000 nits & Rec.2020 lim), Un-tone-mapped]
  ST2084-P3-D65 - Display:
    - !<View> {name: Raw, colorspace: Raw}
    - !<Views> [ACES 1.1 - HDR Video (1000 nits & P3 lim), Un-tone-mapped]
  P3-D65 - Display:
    - !<View> {name: Raw, colorspace: Raw}
    - !<Views> [ACES 1.0 - SDR Cinema, Un-tone-mapped]

active_displays: [sRGB - Display, Rec.1886 Rec.709 - Display, Rec.2100-PQ - Display, ST2084-P3-D65 - Display, P3-D65 - Display]
active_views: [ACES 1.0 - SDR Video, ACES 1.1 - HDR Video (1000 nits & Rec.2020 lim), ACES 1.1 - HDR Video (1000 nits & P3 lim), ACES 1.0 - SDR Cinema, Un-tone-mapped, Raw]
inactive_colorspaces: [CIE XYZ-D65 - Display-referred, CIE XYZ-D65 - Scene-referred]

looks:
  - !<Look>
    name: ACES 1.3 Reference Gamut Compression
    process_space: ACES2065-1
    description: |
      LMT (applied in ACES2065-1) to compress scene-referred values from common cameras into the AP1 gamut

      ACEStransformID: urn:ampas:aces:transformId:v1.5:LMT.Academy.ReferenceGamutCompress.a1.v1.0

      AMF Components
      --------------
      ACEStransformID: urn:ampas:aces:transformId:v1.5:InvLMT.Academy.ReferenceGamutCompress.a1.v1.0
    transform: !<BuiltinTransform> {style: ACES-LMT - ACES 1.3 Reference Gamut Compression}


default_view_transform: Un-tone-mapped

view_transforms:
  - !<ViewTransform>
    name: Un-tone-mapped
    from_scene_reference: !<BuiltinTransform> {style: UTILITY - ACES-AP0_to_CIE-XYZ-D65_BFD}

  - !<ViewTransform>
    name: ACES 1.0 - SDR Video
    description: |
      Component of ACES Output Transforms for SDR D65 video

      ACEStransformID: urn:ampas:aces:transformId:v1.5:ODT.Academy.RGBmonitor_100nits_dim.a1.0.3
      ACEStransformID: urn:ampas:aces:transformId:v1.5:ODT.Academy.Rec709_100nits_dim.a1.0.3
      ACEStransformID: urn:ampas:aces:transformId:v1.5:ODT.Academy.Rec2020_100nits_dim.a1.0.3

      AMF Components
      --------------
      ACEStransformID: urn:ampas:aces:transformId:v1.5:InvODT.Academy.RGBmonitor_100nits_dim.a1.0.3
      ACEStransformID: urn:ampas:aces:transformId:v1.5:InvODT.Academy.Rec709_100nits_dim.a1.0.3
      ACEStransformID: urn:ampas:aces:transformId:v1.5:InvODT.Academy.Rec2020_100nits_dim.a1.0.3
    from_scene_reference: !<BuiltinTransform> {style: ACES-OUTPUT - ACES2065-1_to_CIE-XYZ-D65 - SDR-VIDEO_1.0}

  - !<ViewTransform>
    name: ACES 1.1 - HDR Video (1000 nits & Rec.2020 lim)
    description: |
      Component of ACES Output Transforms for 1000 nit HDR D65 video

      ACEStransformID: urn:ampas:aces:transformId:v1.5:RRTODT.Academy.Rec2020_1000nits_15nits_HLG.a1.1.0
      ACEStransformID: urn:ampas:aces:transformId:v1.5:RRTODT.Academy.Rec2020_1000nits_15nits_ST2084.a1.1.0

      AMF Components
      --------------
      ACEStransformID: urn:ampas:aces:transformId:v1.5:InvRRTODT.Academy.Rec2020_1000nits_15nits_HLG.a1.1.0
      ACEStransformID: urn:ampas:aces:transformId:v1.5:InvRRTODT.Academy.Rec2020_1000nits_15nits_ST2084.a1.1.0
    from_scene_reference: !<BuiltinTransform> {style: ACES-OUTPUT - ACES2065-1_to_CIE-XYZ-D65 - HDR-VIDEO-1000nit-15nit-REC2020lim_1.1}

  - !<ViewTransform>
    name: ACES 1.1 - HDR Video (1000 nits & P3 lim)
    description: |
      Component of ACES Output Transforms for 1000 nit HDR D65 video

      ACEStransformID: urn:ampas:aces:transformId:v1.5:RRTODT.Academy.P3D65_1000nits_15nits_ST2084.a1.1.0

      AMF Components
      --------------
      ACEStransformID: urn:ampas:aces:transformId:v1.5:InvRRTODT.Academy.P3D65_1000nits_15nits_ST2084.a1.1.0
    from_scene_reference: !<BuiltinTransform> {style: ACES-OUTPUT - ACES2065-1_to_CIE-XYZ-D65 - HDR-VIDEO-1000nit-15nit-P3lim_1.1}

  - !<ViewTransform>
    name: ACES 1.0 - SDR Cinema
    description: |
      Component of ACES Output Transforms for SDR cinema

      ACEStransformID: urn:ampas:aces:transformId:v1.5:ODT.Academy.P3D60_48nits.a1.0.3
      ACEStransformID: urn:ampas:aces:transformId:v1.5:ODT.Academy.P3D65_48nits.a1.1.0

      AMF Components
      --------------
      ACEStransformID: urn:ampas:aces:transformId:v1.5:InvODT.Academy.P3D60_48nits.a1.0.3
      ACEStransformID: urn:ampas:aces:transformId:v1.5:InvODT.Academy.P3D65_48nits.a1.1.0
    from_scene_reference: !<BuiltinTransform> {style: ACES-OUTPUT - ACES2065-1_to_CIE-XYZ-D65 - SDR-CINEMA_1.0}

display_colorspaces:
  - !<ColorSpace>
    name: CIE XYZ-D65 - Display-referred
    aliases: [cie_xyz_d65_display, lin_ciexyzd65_display]
    family: ""
    equalitygroup: ""
    bitdepth: 32f
    description: The "CIE XYZ (D65)" display connection colorspace.
    isdata: false
    encoding: display-linear
    allocation: uniform

  - !<ColorSpace>
    name: sRGB - Display
    aliases: [srgb_display]
    family: Display
    equalitygroup: ""
    bitdepth: 32f
    description: |
      Convert CIE XYZ (D65 white) to sRGB (piecewise EOTF)

      AMF Components
      --------------
      ACEStransformID: urn:ampas:aces:transformId:v1.5:ODT.Academy.RGBmonitor_100nits_dim.a1.0.3
      ACEStransformID: urn:ampas:aces:transformId:v1.5:InvODT.Academy.RGBmonitor_100nits_dim.a1.0.3
      ACEStransformID: urn:ampas:aces:transformId:v1.5:ODT.Academy.RGBmonitor_D60sim_100nits_dim.a1.0.3
      ACEStransformID: urn:ampas:aces:transformId:v1.5:InvODT.Academy.RGBmonitor_D60sim_100nits_dim.a1.0.3
    isdata: false
    categories: [file-io]
    encoding: sdr-video
    allocation: uniform
    from_display_reference: !<BuiltinTransform> {style: DISPLAY - CIE-XYZ-D65_to_sRGB}

  - !<ColorSpace>
    name: Rec.1886 Rec.709 - Display
    aliases: [rec1886_rec709_display]
    family: Display
    equalitygroup: ""
    bitdepth: 32f
    description: |
      Convert CIE XYZ (D65 white) to Rec.1886/Rec.709 (HD video)

      AMF Components
      --------------
      ACEStransformID: urn:ampas:aces:transformId:v1.5:ODT.Academy.Rec709_100nits_dim.a1.0.3
      ACEStransformID: urn:ampas:aces:transformId:v1.5:InvODT.Academy.Rec709_100nits_dim.a1.0.3
      ACEStransformID: urn:ampas:aces:transformId:v1.5:ODT.Academy.Rec709_D60sim_100nits_dim.a1.0.3
      ACEStransformID: urn:ampas:aces:transformId:v1.5:InvODT.Academy.Rec709_D60sim_100nits_dim.a1.0.3
    isdata: false
    categories: [file-io]
    encoding: sdr-video
    allocation: uniform
    from_display_reference: !<BuiltinTransform> {style: DISPLAY - CIE-XYZ-D65_to_REC.1886-REC.709}

  - !<ColorSpace>
    name: Rec.2100-PQ - Display
    aliases: [rec2100_pq_display]
    family: Display
    equalitygroup: ""
    bitdepth: 32f
    description: |
      Convert CIE XYZ (D65 white) to Rec.2100-PQ

      AMF Components
      --------------
      ACEStransformID: urn:ampas:aces:transformId:v1.5:RRTODT.Academy.Rec2020_1000nits_15nits_ST2084.a1.1.0
      ACEStransformID: urn:ampas:aces:transformId:v1.5:InvRRTODT.Academy.Rec2020_1000nits_15nits_ST2084.a1.1.0
      ACEStransformID: urn:ampas:aces:transformId:v1.5:RRTODT.Academy.Rec2020_2000nits_15nits_ST2084.a1.1.0
      ACEStransformID: urn:ampas:aces:transformId:v1.5:InvRRTODT.Academy.Rec2020_2000nits_15nits_ST2084.a1.1.0
      ACEStransformID: urn:ampas:aces:transformId:v1.5:RRTODT.Academy.Rec2020_4000nits_15nits_ST2084.a1.1.0
      ACEStransformID: urn:ampas:aces:transformId:v1.5:InvRRTODT.Academy.Rec2020_4000nits_15nits_ST2084.a1.1.0
    isdata: false
    categories: [file-io]
    encoding: hdr-video
    allocation: uniform
    from_display_reference: !<BuiltinTransform> {style: DISPLAY - CIE-XYZ-D65_to_REC.2100-PQ}

  - !<ColorSpace>
    name: ST2084-P3-D65 - Display
    aliases: [st2084_p3d65_display]
    family: Display
    equalitygroup: ""
    bitdepth: 32f
    description: |
      Convert CIE XYZ (D65 white) to ST-2084 (PQ), P3-D65 primaries

      AMF Components
      --------------
      ACEStransformID: urn:ampas:aces:transformId:v1.5:RRTODT.Academy.P3D65_1000nits_15nits_ST2084.a1.1.0
      ACEStransformID: urn:ampas:aces:transformId:v1.5:InvRRTODT.Academy.P3D65_1000nits_15nits_ST2084.a1.1.0
      ACEStransformID: urn:ampas:aces:transformId:v1.5:RRTODT.Academy.P3D65_2000nits_15nits_ST2084.a1.1.0
      ACEStransformID: urn:ampas:aces:transformId:v1.5:InvRRTODT.Academy.P3D65_2000nits_15nits_ST2084.a1.1.0
      ACEStransformID: urn:ampas:aces:transformId:v1.5:RRTODT.Academy.P3D65_4000nits_15nits_ST2084.a1.1.0
      ACEStransformID: urn:ampas:aces:transformId:v1.5:InvRRTODT.Academy.P3D65_4000nits_15nits_ST2084.a1.1.0
      ACEStransformID: urn:ampas:aces:transformId:v1.5:RRTODT.Academy.P3D65_108nits_7point2nits_ST2084.a1.1.0
      ACEStransformID: urn:ampas:aces:transformId:v1.5:InvRRTODT.Academy.P3D65_108nits_7point2nits_ST2084.a1.1.0
    isdata: false
    categories: [file-io]
    encoding: hdr-video
    allocation: uniform
    from_display_reference: !<BuiltinTransform> {style: DISPLAY - CIE-XYZ-D65_to_ST2084-P3-D65}

  - !<ColorSpace>
    name: P3-D65 - Display
    aliases: [p3d65_display]
    family: Display
    equalitygroup: ""
    bitdepth: 32f
    description: |
      Convert CIE XYZ (D65 white) to Gamma 2.6, P3-D65

      AMF Components
      --------------
      ACEStransformID: urn:ampas:aces:transformId:v1.5:ODT.Academy.P3D65_48nits.a1.1.0
      ACEStransformID: urn:ampas:aces:transformId:v1.5:InvODT.Academy.P3D65_48nits.a1.1.0
      ACEStransformID: urn:ampas:aces:transformId:v1.5:ODT.Academy.P3D65_Rec709limited_48nits.a1.1.0
      ACEStransformID: urn:ampas:aces:transformId:v1.5:ODT.Academy.P3D65_D60sim_48nits.a1.1.0
      ACEStransformID: urn:ampas:aces:transformId:v1.5:InvODT.Academy.P3D65_D60sim_48nits.a1.1.0
    isdata: false
    categories: [file-io]
    encoding: sdr-video
    allocation: uniform
    from_display_reference: !<BuiltinTransform> {style: DISPLAY - CIE-XYZ-D65_to_G2.6-P3-D65}

colorspaces:
  - !<ColorSpace>
    name: ACES2065-1
    aliases: [aces2065_1, aces, ACES - ACES2065-1, lin_ap0, lin_ap0_scene]
    family: ACES
    equalitygroup: ""
    bitdepth: 32f
    description: The "Academy Color Encoding System" reference colorspace.
    isdata: false
    categories: [file-io, texture]
    encoding: scene-linear
    allocation: uniform

  - !<ColorSpace>
    name: ACEScc
    aliases: [ACES - ACEScc, acescc_ap1]
    family: ACES
    equalitygroup: ""
    bitdepth: 32f
    description: |
      Convert ACEScc to ACES2065-1

      ACEStransformID: urn:ampas:aces:transformId:v1.5:ACEScsc.Academy.ACEScc_to_ACES.a1.0.3

      AMF Components
      --------------
      ACEStransformID: urn:ampas:aces:transformId:v1.5:ACEScsc.Academy.ACES_to_ACEScc.a1.0.3
    isdata: false
    categories: [file-io]
    encoding: log
    allocation: uniform
    to_scene_reference: !<BuiltinTransform> {style: ACEScc_to_ACES2065-1}

  - !<ColorSpace>
    name: ACEScct
    aliases: [ACES - ACEScct, acescct_ap1]
    family: ACES
    equalitygroup: ""
    bitdepth: 32f
    description: |
      Convert ACEScct to ACES2065-1

      ACEStransformID: urn:ampas:aces:transformId:v1.5:ACEScsc.Academy.ACEScct_to_ACES.a1.0.3

      AMF Components
      --------------
      ACEStransformID: urn:ampas:aces:transformId:v1.5:ACEScsc.Academy.ACES_to_ACEScct.a1.0.3
    isdata: false
    categories: [file-io, working-space]
    encoding: log
    allocation: uniform
    to_scene_reference: !<BuiltinTransform> {style: ACEScct_to_ACES2065-1}

  - !<ColorSpace>
    name: ACEScg
    aliases: [ACES - ACEScg, lin_ap1, lin_ap1_scene]
    family: ACES
    equalitygroup: ""
    bitdepth: 32f
    description: |
      Convert ACEScg to ACES2065-1

      ACEStransformID: urn:ampas:aces:transformId:v1.5:ACEScsc.Academy.ACEScg_to_ACES.a1.0.3

      AMF Components
      --------------
      ACEStransformID: urn:ampas:aces:transformId:v1.5:ACEScsc.Academy.ACES_to_ACEScg.a1.0.3
    isdata: false
    categories: [file-io, working-space, texture]
    encoding: scene-linear
    allocation: uniform
    to_scene_reference: !<BuiltinTransform> {style: ACEScg_to_ACES2065-1}

  - !<ColorSpace>
    name: sRGB Encoded Rec.709 (sRGB)
    aliases: [srgb_encoded_rec709_srgb, Utility - sRGB - Texture, srgb_texture, srgb_rec709_scene, Input - Generic - sRGB - Texture, sRGB - Texture, srgb_tx]
    family: Utility
    equalitygroup: ""
    bitdepth: 32f
    description: |
      Convert ACES2065-1 to sRGB

      CLFtransformID: urn:aswf:ocio:transformId:1.0:OCIO:Utility:AP0_to_sRGB-Encoded-Rec709:1.0
    isdata: false
    categories: [file-io, texture]
    encoding: sdr-video
    allocation: uniform
    from_scene_reference: !<GroupTransform>
      name: AP0 to sRGB Encoded Rec.709 (sRGB)
      children:
        - !<MatrixTransform> {matrix: [2.52168618674388, -1.13413098823972, -0.387555198504164, 0, -0.276479914229922, 1.37271908766826, -0.096239173438334, 0, -0.0153780649660342, -0.152975335867399, 1.16835340083343, 0, 0, 0, 0, 1]}
        - !<ExponentWithLinearTransform> {gamma: 2.4, offset: 0.055, direction: inverse}

  - !<ColorSpace>
    name: Gamma 1.8 Encoded Rec.709
    aliases: [g18_encoded_rec709, Utility - Gamma 1.8 - Rec.709 - Texture, g18_rec709, Gamma 1.8 Rec.709 - Texture, g18_rec709_tx, g18_rec709_scene]
    family: Utility
    equalitygroup: ""
    bitdepth: 32f
    description: |
      Convert ACES2065-1 to 1.8 gamma-corrected Rec.709 primaries, D65 white point

      CLFtransformID: urn:aswf:ocio:transformId:1.0:OCIO:Utility:AP0_to_Gamma1.8_Encoded_Rec709:1.0
    isdata: false
    categories: [file-io, texture]
    encoding: sdr-video
    allocation: uniform
    from_scene_reference: !<GroupTransform>
      name: AP0 to Gamma 1.8 Encoded Rec.709
      children:
        - !<MatrixTransform> {matrix: [2.52168618674388, -1.13413098823972, -0.387555198504164, 0, -0.276479914229922, 1.37271908766826, -0.096239173438334, 0, -0.0153780649660342, -0.152975335867399, 1.16835340083343, 0, 0, 0, 0, 1]}
        - !<ExponentTransform> {value: 1.8, style: pass_thru, direction: inverse}

  - !<ColorSpace>
    name: Gamma 2.2 Encoded Rec.709
    aliases: [g22_encoded_rec709, Utility - Gamma 2.2 - Rec.709 - Texture, g22_rec709, Gamma 2.2 Rec.709 - Texture, g22_rec709_tx, g22_rec709_scene]
    family: Utility
    equalitygroup: ""
    bitdepth: 32f
    description: |
      Convert ACES2065-1 to 2.2 gamma-corrected Rec.709 primaries, D65 white point

      CLFtransformID: urn:aswf:ocio:transformId:1.0:OCIO:Utility:AP0_to_Gamma2.2_Encoded_Rec709:1.0
    isdata: false
    categories: [file-io, texture]
    encoding: sdr-video
    allocation: uniform
    from_scene_reference: !<GroupTransform>
      name: AP0 to Gamma 2.2 Encoded Rec.709
      children:
        - !<MatrixTransform> {matrix: [2.52168618674388, -1.13413098823972, -0.387555198504164, 0, -0.276479914229922, 1.37271908766826, -0.096239173438334, 0, -0.0153780649660342, -0.152975335867399, 1.16835340083343, 0, 0, 0, 0, 1]}
        - !<ExponentTransform> {value: 2.2, style: pass_thru, direction: inverse}

  - !<ColorSpace>
    name: Gamma 2.4 Encoded Rec.709
    aliases: [g24_encoded_rec709, g24_rec709, rec709_display, Utility - Rec.709 - Display, Gamma 2.4 Rec.709 - Texture, g24_rec709_tx]
    family: Utility
    equalitygroup: ""
    bitdepth: 32f
    description: |
      Convert ACES2065-1 to 2.4 gamma-corrected Rec.709 primaries, D65 white point

      CLFtransformID: urn:aswf:ocio:transformId:1.0:OCIO:Utility:AP0_to_Gamma2.4_Encoded_Rec709:1.0
    isdata: false
    categories: [file-io, texture]
    encoding: sdr-video
    allocation: uniform
    from_scene_reference: !<GroupTransform>
      name: AP0 to Gamma 2.4 Encoded Rec.709
      children:
        - !<MatrixTransform> {matrix: [2.52168618674388, -1.13413098823972, -0.387555198504164, 0, -0.276479914229922, 1.37271908766826, -0.096239173438334, 0, -0.0153780649660342, -0.152975335867399, 1.16835340083343, 0, 0, 0, 0, 1]}
        - !<ExponentTransform> {value: 2.4, style: pass_thru, direction: inverse}

  - !<ColorSpace>
    name: sRGB Encoded P3-D65
    aliases: [srgb_encoded_p3d65, srgb_p3d65, srgb_displayp3, srgb_p3d65_scene, sRGB Encoded P3-D65 - Texture, srgb_encoded_p3d65_tx]
    family: Utility
    equalitygroup: ""
    bitdepth: 32f
    description: |
      Convert ACES2065-1 to sRGB Encoded P3-D65 primaries, D65 white point

      CLFtransformID: urn:aswf:ocio:transformId:1.0:OCIO:Utility:AP0_to_sRGB_Encoded_P3-D65:1.0
    isdata: false
    categories: [file-io, texture]
    encoding: sdr-video
    allocation: uniform
    from_scene_reference: !<GroupTransform>
      name: AP0 to sRGB Encoded P3-D65
      children:
        - !<MatrixTransform> {matrix: [2.02490528596679, -0.689069761034766, -0.335835524932019, 0, -0.183597032256178, 1.28950620775902, -0.105909175502841, 0, 0.00905856112234766, -0.0592796840575522, 1.0502211229352, 0, 0, 0, 0, 1]}
        - !<ExponentWithLinearTransform> {gamma: 2.4, offset: 0.055, direction: inverse}

  - !<ColorSpace>
    name: Gamma 2.2 Encoded AdobeRGB
    aliases: [g22_encoded_adobergb, adobergb, g22_adobergb_scene]
    family: Utility
    equalitygroup: ""
    bitdepth: 32f
    description: |
      Convert ACES2065-1 to 2.2 gamma-corrected AdobeRGB primaries, D65 white point

      CLFtransformID: urn:aswf:ocio:transformId:1.0:OCIO:Utility:AP0_to_Gamma2.2_Encoded_AdobeRGB:1.0
    isdata: false
    categories: [file-io, texture]
    encoding: sdr-video
    allocation: uniform
    from_scene_reference: !<GroupTransform>
      name: AP0 to Gamma 2.2 Encoded AdobeRGB
      children:
        - !<MatrixTransform> {matrix: [1.72456031681181, -0.419993594161504, -0.304566722650304, 0, -0.276479914229922, 1.37271908766826, -0.0962391734383339, 0, -0.0261255258256649, -0.0901747806551909, 1.11630030648086, 0, 0, 0, 0, 1]}
        - !<ExponentTransform> {value: 2.19921875, style: pass_thru, direction: inverse}

  - !<ColorSpace>
    name: sRGB Encoded AP1
    aliases: [srgb_encoded_ap1, srgb_ap1, srgb_ap1_scene, sRGB Encoded AP1 - Texture, srgb_encoded_ap1_tx]
    family: Utility
    equalitygroup: ""
    bitdepth: 32f
    description: |
      Convert ACES2065-1 to sRGB Encoded AP1 primaries, ACES ~=D60 white point

      CLFtransformID: urn:aswf:ocio:transformId:1.0:OCIO:Utility:AP0_to_sRGB_Encoded_AP1:1.0
    isdata: false
    categories: [file-io, texture]
    encoding: sdr-video
    allocation: uniform
    from_scene_reference: !<GroupTransform>
      name: AP0 to sRGB Encoded AP1
      children:
        - !<MatrixTransform> {matrix: [1.45143931614567, -0.23651074689374, -0.214928569251925, 0, -0.0765537733960206, 1.17622969983357, -0.0996759264375522, 0, 0.00831614842569772, -0.00603244979102102, 0.997716301365323, 0, 0, 0, 0, 1]}
        - !<ExponentWithLinearTransform> {gamma: 2.4, offset: 0.055, direction: inverse}

  - !<ColorSpace>
    name: Gamma 2.2 Encoded AP1
    aliases: [g22_encoded_ap1, g22_ap1, Gamma 2.2 AP1 - Texture, g22_ap1_tx, g22_ap1_scene]
    family: Utility
    equalitygroup: ""
    bitdepth: 32f
    description: |
      Convert ACES2065-1 to 2.2 gamma-corrected AP1 primaries, ACES ~=D60 white point

      CLFtransformID: urn:aswf:ocio:transformId:1.0:OCIO:Utility:AP0_to_Gamma2.2_Encoded_AP1:1.0
    isdata: false
    categories: [file-io, texture]
    encoding: sdr-video
    allocation: uniform
    from_scene_reference: !<GroupTransform>
      name: AP0 to Gamma 2.2 Encoded AP1
      children:
        - !<MatrixTransform> {matrix: [1.45143931614567, -0.23651074689374, -0.214928569251925, 0, -0.0765537733960206, 1.17622969983357, -0.0996759264375522, 0, 0.00831614842569772, -0.00603244979102102, 0.997716301365323, 0, 0, 0, 0, 1]}
        - !<ExponentTransform> {value: 2.2, style: pass_thru, direction: inverse}

  - !<ColorSpace>
    name: Linear Rec.709 (sRGB)
    aliases: [lin_rec709_srgb, Utility - Linear - Rec.709, lin_rec709, lin_rec709_scene, lin_srgb, Utility - Linear - sRGB]
    family: Utility
    equalitygroup: ""
    bitdepth: 32f
    description: |
      Convert ACES2065-1 to linear Rec.709 primaries, D65 white point

      CLFtransformID: urn:aswf:ocio:transformId:1.0:OCIO:Utility:AP0_to_Linear_Rec709:1.0
    isdata: false
    categories: [file-io, working-space, texture]
    encoding: scene-linear
    allocation: uniform
    from_scene_reference: !<GroupTransform>
      name: AP0 to Linear Rec.709 (sRGB)
      children:
        - !<MatrixTransform> {matrix: [2.52168618674388, -1.13413098823972, -0.387555198504164, 0, -0.276479914229922, 1.37271908766826, -0.096239173438334, 0, -0.0153780649660342, -0.152975335867399, 1.16835340083343, 0, 0, 0, 0, 1]}

  - !<ColorSpace>
    name: Linear P3-D65
    aliases: [lin_p3d65, Utility - Linear - P3-D65, lin_displayp3, lin_p3d65_scene, Linear Display P3]
    family: Utility
    equalitygroup: ""
    bitdepth: 32f
    description: |
      Convert ACES2065-1 to linear P3 primaries, D65 white point

      CLFtransformID: urn:aswf:ocio:transformId:1.0:OCIO:Utility:AP0_to_Linear_P3-D65:1.0
    isdata: false
    categories: [file-io, working-space, texture]
    encoding: scene-linear
    allocation: uniform
    from_scene_reference: !<GroupTransform>
      name: AP0 to Linear P3-D65
      children:
        - !<MatrixTransform> {matrix: [2.02490528596679, -0.689069761034766, -0.335835524932019, 0, -0.183597032256178, 1.28950620775902, -0.105909175502841, 0, 0.00905856112234766, -0.0592796840575522, 1.0502211229352, 0, 0, 0, 0, 1]}

  - !<ColorSpace>
    name: Linear AdobeRGB
    aliases: [lin_adobergb, Utility - Linear - Adobe RGB, lin_adobergb_scene]
    family: Utility
    equalitygroup: ""
    bitdepth: 32f
    description: |
      Convert ACES2065-1 to linear Adobe RGB (1998) primaries, D65 white point

      CLFtransformID: urn:aswf:ocio:transformId:1.0:OCIO:Utility:AP0_to_Linear_AdobeRGB:1.0
    isdata: false
    categories: [file-io, texture]
    encoding: scene-linear
    allocation: uniform
    from_scene_reference: !<GroupTransform>
      name: AP0 to Linear Adobe RGB (1998)
      children:
        - !<MatrixTransform> {matrix: [1.72456031681181, -0.419993594161504, -0.304566722650304, 0, -0.276479914229922, 1.37271908766826, -0.0962391734383339, 0, -0.0261255258256649, -0.0901747806551909, 1.11630030648086, 0, 0, 0, 0, 1]}

  - !<ColorSpace>
